svg/color/dai.svg

<svg width="32" height="32" viewBox="0 0 32 32" fill="none" xmlns="http://www.w3.org/2000/svg">
<path d="M16 32C24.8366 32 32 24.8366 32 16C32 7.16344 24.8366 0 16 0C7.16344 0 0 7.16344 0 16C0 24.8366 7.16344 32 16 32Z" fill="#FDC134"/>
<path d="M26.633 15.817L15.817 5L5 15.817L15.817 19.813L26.633 15.817V15.817ZM8.364 14.9L15.697 7.402C15.697 7.402 22.866 14.735 23.168 14.882C23.471 15.028 18.237 14.882 18.237 14.882L15.817 12.407L13.369 14.9H8.364V14.9ZM15.817 20.574L26.633 16.55L15.817 26.633L5 16.605L15.817 20.575V20.574Z" fill="white"/>
</svg>

<svg width="32" height="32" viewBox="0 0 32 32" xmlns="http://www.w3.org/2000/svg"><g fill="none"><circle cx="16" cy="16" r="16" fill="#B68900"/><path d="M26.633 15.817L15.817 5 5 15.817l10.817 3.996 10.816-3.996zM8.364 14.9l7.333-7.498s7.169 7.333 7.471 7.48c.303.146-4.931 0-4.931 0l-2.42-2.475-2.448 2.493H8.364zm7.453 5.674l10.816-4.024-10.816 10.083L5 16.605l10.817 3.97z" fill="#FFF"/></g></svg>
